src/assets/images/Icon-1.svg

<svg width="80" height="80" viewBox="0 0 80 80" fill="none" xmlns="http://www.w3.org/2000/svg">
<path d="M72.8659 9.43076C72.0377 9.43076 71.1343 9.50587 70.2303 9.50587H70.1552V6.26849C70.1552 5.13929 69.2519 4.23541 68.1222 4.23541C58.4095 4.23541 48.9222 6.11777 39.9622 9.80731C31.002 6.11777 21.5151 4.23541 11.8022 4.23541C10.673 4.23541 9.76908 5.06367 9.76908 6.26849V9.58156H9.69398C8.79061 9.50593 7.88719 9.43083 6.98339 9.43083C5.85419 9.43083 5.02588 10.3342 5.02588 11.4639V51.5204C5.02588 52.6496 5.85414 53.4779 6.98339 53.4779C13.3837 53.4779 19.7082 54.2311 25.8069 55.7369C25.2801 57.3178 24.9036 58.9742 24.9036 60.7059C24.9036 68.9885 31.6798 75.7647 39.9624 75.7647C48.245 75.7647 55.0212 68.9885 55.0212 60.7059C55.0212 58.9742 54.6446 57.3178 54.1178 55.7363C60.2922 54.2306 66.5411 53.4774 72.9414 53.4774C74.0706 53.4774 74.9744 52.6491 74.9744 51.5198L74.9739 11.4634C74.8988 10.3336 73.9955 9.43029 72.8657 9.43029L72.8659 9.43076ZM13.76 8.22594C22.0426 8.45178 30.1741 10.1834 38.0047 13.3457V45.8727C35.2941 46.2493 32.885 47.3035 30.8519 48.8842C25.28 47.3785 19.5578 46.4745 13.8355 46.3244L13.8349 8.22553L13.76 8.22594ZM39.9624 72.226C33.6378 72.226 28.5175 67.1062 28.5175 60.7811C28.5175 54.4565 33.6378 49.2611 39.9624 49.2611C46.287 49.2611 51.4072 54.3808 51.4072 60.7059C51.4072 67.0305 46.287 72.226 39.9624 72.226ZM66.1647 46.3248C60.4425 46.4755 54.7199 47.3789 49.1483 48.8846C47.1152 47.3032 44.6303 46.2491 41.9955 45.8731V13.3461C49.7508 10.1833 57.8825 8.45168 66.1649 8.2258L66.1647 46.3248Z" fill="white"/>
<path d="M19.1814 18.1645C23.3978 18.6162 27.6142 19.4444 31.7556 20.7243C31.9063 20.7995 32.1321 20.7995 32.358 20.7995C33.2613 20.7995 34.0144 20.197 34.2403 19.3687C34.5413 18.3146 33.9394 17.1855 32.8853 16.884C28.5182 15.6041 24.0759 14.7008 19.6337 14.1734C18.5796 14.0983 17.6006 14.851 17.4504 15.9051C17.3753 16.4324 17.5255 16.9592 17.9021 17.3358C18.2025 17.8631 18.6541 18.1645 19.1814 18.1645Z" fill="white"/>
<path d="M19.1813 25.7696C23.3976 26.2213 27.6141 27.0495 31.7554 28.3295C31.9061 28.4046 32.132 28.4046 32.2827 28.4046C33.1861 28.4046 33.9392 27.8021 34.1651 26.9738C34.466 25.9197 33.8641 24.7906 32.81 24.4891C28.518 23.2092 24.0006 22.3059 19.5584 21.7785C18.4292 21.7034 17.5253 22.4561 17.3752 23.5102C17.3001 24.0375 17.4503 24.5643 17.8268 24.9409C18.2024 25.4687 18.654 25.7696 19.1813 25.7696Z" fill="white"/>
<path d="M19.1814 33.3741C23.3978 33.8258 27.6142 34.6541 31.7556 35.934C31.9063 36.0091 32.1321 36.0091 32.358 36.0091C33.2613 36.0091 34.0144 35.4067 34.2403 34.5784C34.5413 33.5243 33.9394 32.3951 32.8853 32.0937C28.5933 30.8137 24.0759 29.9104 19.6337 29.3831C18.5796 29.308 17.6006 30.0606 17.4504 31.1147C17.3753 31.642 17.5255 32.1688 17.9021 32.5454C18.2025 33.0733 18.6541 33.299 19.1814 33.3741Z" fill="white"/>
<path d="M31.7554 43.5388C31.9061 43.6139 32.132 43.6139 32.2827 43.6139C33.1861 43.6139 33.9392 43.0115 34.1651 42.1832C34.466 41.1291 33.8641 40 32.81 39.6985C28.518 38.4186 24.0006 37.5152 19.5584 36.9879C18.4292 36.8372 17.4502 37.6654 17.3752 38.7196C17.3001 39.2469 17.4503 39.7736 17.8268 40.1503C18.1278 40.602 18.6551 40.8278 19.1819 40.9034C23.3977 41.4307 27.6141 42.259 31.7554 43.539L31.7554 43.5388Z" fill="white"/>
<path d="M47.6424 20.8001C47.8683 20.8001 48.019 20.8001 48.2448 20.7249C52.3104 19.5201 56.6025 18.6167 60.819 18.1651C61.3463 18.09 61.7979 17.8641 62.174 17.4119C62.4749 16.9602 62.6257 16.5086 62.6257 15.9812C62.5506 14.9271 61.6467 14.174 60.5926 14.174H60.4418C55.9996 14.6257 51.5574 15.529 47.1902 16.8846C46.6629 17.0353 46.2869 17.4119 45.9854 17.8636C45.7596 18.3153 45.6844 18.8426 45.8347 19.3693C45.9859 20.2732 46.7386 20.8001 47.6424 20.8001Z" fill="white"/>
<path d="M47.6425 28.4048C47.8683 28.4048 48.0191 28.4048 48.2449 28.3297C52.3105 27.1249 56.6025 26.2215 60.819 25.7698C61.3463 25.6947 61.798 25.4689 62.174 25.0167C62.475 24.565 62.6257 24.1133 62.6257 23.5859C62.475 22.5319 61.4965 21.7036 60.4425 21.8543C56.0002 22.306 51.4823 23.2093 47.1908 24.5649C46.6635 24.7156 46.2875 25.0922 45.986 25.5439C45.7602 25.9956 45.6851 26.5229 45.8353 27.0496C45.986 27.8023 46.7386 28.4048 47.6425 28.4048Z" fill="white"/>
<path d="M47.6425 36.0093C47.8683 36.0093 48.0191 36.0093 48.2449 35.9342C52.3105 34.7293 56.5275 33.8259 60.819 33.3743C61.3463 33.2992 61.798 33.0733 62.174 32.6211C62.475 32.1695 62.6257 31.7178 62.6257 31.1904C62.475 30.1363 61.4965 29.3081 60.4425 29.3832C56.0002 29.8349 51.4823 30.7382 47.1908 32.0938C46.6635 32.2445 46.2875 32.6211 45.986 33.0728C45.7602 33.5245 45.6851 34.0518 45.8353 34.5785C45.986 35.4068 46.7386 36.0093 47.6425 36.0093Z" fill="white"/>
<path d="M47.6425 43.6139C47.8683 43.6139 48.0191 43.6139 48.2449 43.5388C52.3105 42.334 56.6025 41.4306 60.819 40.9789C61.3463 40.9038 61.798 40.678 62.174 40.2258C62.475 39.8492 62.6257 39.3224 62.6257 38.795C62.475 37.741 61.4965 36.9127 60.4425 37.0634C56.0002 37.5151 51.4823 38.4184 47.1908 39.774C46.6635 39.9247 46.2875 40.3013 45.986 40.753C45.7602 41.2047 45.6851 41.732 45.8353 42.2587C45.986 43.0114 46.7386 43.6138 47.6425 43.6138L47.6425 43.6139Z" fill="white"/>
<path d="M38.3062 54.7578C37.3272 54.0803 36.0472 54.8329 36.0472 55.9626V65.3744C36.0472 66.5036 37.3272 67.2568 38.3062 66.5792L45.384 61.8356C46.2874 61.2331 46.2874 59.9532 45.384 59.4259L38.3062 54.7578Z" fill="white"/>
</svg>

<svg xmlns="http://www.w3.org/2000/svg" width="80" height="80" fill="none"><path fill="#fff" d="M72.866 9.43c-.828 0-1.732.076-2.636.076h-.075V6.268c0-1.129-.903-2.033-2.033-2.033-9.712 0-19.2 1.883-28.16 5.572a73.652 73.652 0 0 0-28.16-5.572c-1.129 0-2.033.829-2.033 2.033v3.314h-.075c-.903-.076-1.807-.151-2.71-.151-1.13 0-1.958.903-1.958 2.033V51.52c0 1.13.828 1.958 1.957 1.958 6.4 0 12.725.753 18.824 2.259-.527 1.58-.903 3.237-.903 4.969 0 8.282 6.776 15.059 15.058 15.059 8.283 0 15.06-6.776 15.06-15.06 0-1.73-.377-3.387-.904-4.969a79.01 79.01 0 0 1 18.823-2.259c1.13 0 2.033-.828 2.033-1.957V11.463c-.075-1.13-.978-2.033-2.108-2.033ZM13.76 8.227c8.283.226 16.414 1.957 24.245 5.12v32.527a14.88 14.88 0 0 0-7.153 3.011c-5.572-1.505-11.294-2.41-17.017-2.56V8.226h-.075Zm26.202 64c-6.324 0-11.445-5.12-11.445-11.445s5.12-11.52 11.445-11.52 11.445 5.12 11.445 11.445-5.12 11.52-11.445 11.52Zm26.203-25.901c-5.723.15-11.445 1.054-17.017 2.56-2.033-1.582-4.518-2.636-7.153-3.012V13.346c7.756-3.163 15.888-4.894 24.17-5.12v38.099Z"/><path fill="#fff" d="M19.181 18.165c4.217.451 8.433 1.28 12.575 2.56.15.074.376.074.602.074.903 0 1.656-.602 1.882-1.43.301-1.054-.3-2.183-1.355-2.485a81.205 81.205 0 0 0-13.251-2.71c-1.054-.076-2.033.677-2.184 1.731-.075.527.076 1.054.452 1.43.3.528.752.83 1.28.83ZM19.181 25.77c4.217.451 8.433 1.28 12.574 2.56.151.075.377.075.528.075.903 0 1.656-.603 1.882-1.431.301-1.054-.3-2.183-1.355-2.485-4.292-1.28-8.81-2.183-13.252-2.71-1.129-.076-2.033.677-2.183 1.731-.075.527.075 1.054.452 1.43.375.529.827.83 1.354.83ZM19.181 33.374c4.217.452 8.433 1.28 12.575 2.56.15.075.376.075.602.075.903 0 1.656-.602 1.882-1.43.301-1.055-.3-2.184-1.355-2.485-4.292-1.28-8.81-2.184-13.251-2.71-1.054-.076-2.033.677-2.184 1.73-.075.528.076 1.055.452 1.431.3.528.752.754 1.28.83ZM31.755 43.539c.151.075.377.075.528.075.903 0 1.656-.602 1.882-1.43.301-1.055-.3-2.184-1.355-2.485-4.292-1.28-8.81-2.184-13.252-2.711-1.129-.15-2.108.677-2.183 1.732-.075.527.075 1.054.452 1.43.3.452.828.678 1.355.753 4.216.528 8.432 1.356 12.573 2.636ZM47.642 20.8c.226 0 .377 0 .603-.075 4.065-1.205 8.358-2.108 12.574-2.56a2.062 2.062 0 0 0 1.355-.753c.3-.452.452-.903.452-1.43-.075-1.055-.98-1.808-2.033-1.808h-.151a67.882 67.882 0 0 0-13.252 2.71c-.527.151-.903.528-1.205.98a2.07 2.07 0 0 0-.15 1.505c.15.904.904 1.431 1.807 1.431ZM47.642 28.405c.226 0 .377 0 .603-.075 4.066-1.205 8.358-2.108 12.574-2.56.527-.075.979-.301 1.355-.753.301-.452.452-.904.452-1.431-.151-1.054-1.13-1.882-2.183-1.732-4.443.452-8.96 1.355-13.252 2.71-.528.152-.904.528-1.205.98-.226.452-.3.979-.15 1.506.15.752.903 1.355 1.806 1.355ZM47.642 36.01c.226 0 .377 0 .603-.076 4.066-1.205 8.283-2.108 12.574-2.56a2.062 2.062 0 0 0 1.355-.753c.301-.452.452-.903.452-1.43-.151-1.055-1.13-1.883-2.183-1.808-4.443.452-8.96 1.355-13.252 2.71-.528.151-.904.528-1.205.98-.226.452-.3.979-.15 1.505.15.829.903 1.431 1.806 1.431ZM47.642 43.614c.226 0 .377 0 .603-.075 4.066-1.205 8.358-2.108 12.574-2.56.527-.075.979-.301 1.355-.753.301-.377.452-.904.452-1.431-.151-1.054-1.13-1.882-2.183-1.732-4.443.452-8.96 1.355-13.252 2.711-.528.15-.904.527-1.205.979-.226.452-.3.979-.15 1.506.15.752.903 1.355 1.806 1.355ZM38.306 54.758c-.979-.678-2.259.075-2.259 1.205v9.411c0 1.13 1.28 1.883 2.26 1.205l7.077-4.743c.903-.603.903-1.883 0-2.41l-7.078-4.668Z"/></svg>
